assets/images/icons/library/expand.svg

<svg xmlns="http://www.w3.org/2000/svg" width="800" height="800" fill="none" viewBox="0 0 24 24"><path stroke="#000" stroke-linecap="round" stroke-linejoin="round" stroke-width="2" d="m16 8 5-5m0 0h-5m5 0v5M8 8 3 3m0 0v5m0-5h5m0 13-5 5m0 0h5m-5 0v-5m13 0 5 5m0 0v-5m0 5h-5"/></svg>

<?xml version="1.0" encoding="utf-8"?><!-- Uploaded to: SVG Repo, www.svgrepo.com, Generator: SVG Repo Mixer Tools -->
<svg width="800px" height="800px" viewBox="0 0 24 24" fill="none" xmlns="http://www.w3.org/2000/svg">
<path d="M16 8L21 3M21 3H16M21 3V8M8 8L3 3M3 3L3 8M3 3L8 3M8 16L3 21M3 21H8M3 21L3 16M16 16L21 21M21 21V16M21 21H16" stroke="#000000" stroke-width="2" stroke-linecap="round" stroke-linejoin="round"/>
</svg>
